public/assets/solar2.svg

<svg width="113" height="97" viewBox="0 0 113 97" fill="none" xmlns="http://www.w3.org/2000/svg">
<rect x="82.5806" width="26.2162" height="26.2162" rx="13.1081" fill="#F5AE3D"/>
<g clip-path="url(#clip0_77_1488)">
<path d="M95.386 60.0414V92.6518C95.386 93.8294 94.9569 94.8485 94.0988 95.709C93.2407 96.5696 92.2245 96.9999 91.0502 96.9999H65.0357V70.9115H47.6926V96.9999H21.6781C20.5038 96.9999 19.4876 96.5696 18.6295 95.709C17.7714 94.8485 17.3423 93.8294 17.3423 92.6518V60.0414C17.3423 59.9961 17.3536 59.9282 17.3762 59.8376C17.3988 59.747 17.4101 59.6791 17.4101 59.6338L56.3642 27.431L95.3182 59.6338C95.3634 59.7244 95.386 59.8602 95.386 60.0414ZM110.493 55.3537L106.293 60.3811C105.932 60.7887 105.458 61.0378 104.87 61.1284H104.667C104.08 61.1284 103.606 60.9699 103.245 60.6529L56.3642 21.4524L9.48377 60.6529C8.9418 61.0152 8.39983 61.1737 7.85786 61.1284C7.27073 61.0378 6.7965 60.7887 6.43519 60.3811L2.23492 55.3537C1.87361 54.9007 1.71554 54.3686 1.7607 53.7571C1.80587 53.1457 2.05427 52.6588 2.50591 52.2964L51.2154 11.6014C52.6607 10.4238 54.3769 9.83496 56.3642 9.83496C58.3514 9.83496 60.0676 10.4238 61.5129 11.6014L78.043 25.4608V12.2128C78.043 11.5787 78.2462 11.0579 78.6527 10.6502C79.0592 10.2426 79.5785 10.0388 80.2108 10.0388H93.2181C93.8504 10.0388 94.3698 10.2426 94.7763 10.6502C95.1827 11.0579 95.386 11.5787 95.386 12.2128V39.9317L110.222 52.2964C110.674 52.6588 110.922 53.1457 110.968 53.7571C111.013 54.3686 110.855 54.9007 110.493 55.3537Z" fill="url(#paint0_linear_77_1488)"/>
</g>
<defs>
<linearGradient id="paint0_linear_77_1488" x1="56.3642" y1="9.83496" x2="56.3642" y2="96.9999" gradientUnits="userSpaceOnUse">
<stop stop-color="#28C985"/>
<stop offset="1" stop-color="#18808A"/>
</linearGradient>
<clipPath id="clip0_77_1488">
<rect width="112.73" height="89.1351" fill="white" transform="translate(-0.000488281 7.86523)"/>
</clipPath>
</defs>
</svg>

<svg width="113" height="97" fill="none" xmlns="http://www.w3.org/2000/svg"><rect x="82.581" width="26.216" height="26.216" rx="13.108" fill="#F5AE3D"/><g clip-path="url(#a)"><path d="M95.386 60.041v32.61c0 1.178-.43 2.198-1.287 3.058-.858.86-1.874 1.29-3.049 1.29H65.036V70.913H47.693V97H21.678c-1.174 0-2.19-.43-3.049-1.291-.858-.86-1.287-1.88-1.287-3.057v-32.61a.93.93 0 0 1 .034-.204.93.93 0 0 0 .034-.204L56.364 27.43l38.954 32.203c.045.09.068.226.068.407zm15.107-4.687-4.2 5.027c-.361.408-.835.657-1.423.747h-.203c-.587 0-1.061-.158-1.422-.475l-46.88-39.2-46.881 39.2c-.542.362-1.084.52-1.626.475-.587-.09-1.061-.34-1.423-.747l-4.2-5.027c-.361-.453-.52-.985-.474-1.597.045-.611.293-1.098.745-1.46L51.216 11.6c1.445-1.177 3.16-1.766 5.148-1.766 1.987 0 3.704.589 5.149 1.766l16.53 13.86V12.213c0-.634.203-1.155.61-1.563.406-.407.925-.611 1.558-.611h13.007c.632 0 1.152.204 1.558.611.407.408.61.929.61 1.563v27.719l14.836 12.364c.452.363.7.85.746 1.461.045.612-.113 1.144-.475 1.597z" fill="url(#b)"/></g><defs><linearGradient id="b" x1="56.364" y1="9.835" x2="56.364" y2="97" gradientUnits="userSpaceOnUse"><stop stop-color="#28C985"/><stop offset="1" stop-color="#18808A"/></linearGradient><clipPath id="a"><path fill="#fff" transform="translate(0 7.865)" d="M0 0h112.73v89.135H0z"/></clipPath></defs></svg>
